X: 1
T: First Month Of Summer, The
M: 4/4
L: 1/8
R: reel
K: Gmaj
GECE D2B,D|G,DB,D cABA|GECE D2B,E|DEGA (3Bcd BA:|
GB~B2 dBeB|dBGB cdeg|dB~B2 eBdB|cAAG ABce|
dB~B2 dBeB|dBGB cdef|gzfd egdB|cAAG AcBA||
